X:1
T:Stoop down, my thoughts, that used to rise
T:John Massey
T:p13, Sacred Music, Manchester: [c1810]
T:This edition by Edmund Gooch released into the public domain, January 2016.
T:Stoop down, my thoughts, that used to rise
T:Meditation C.M.
C:John Massey
Z:p13, Sacred Music,
Z:Manchester: [c1810]
%%score [ 1 2 3 4 ]
L:1/8
M:4/4
K:Cmin
V:1 treble nm="Soprano" snm="S."
V:2 treble nm="Alto" snm="A."
V:3 treble-8 transpose=-12 nm="Tenor" snm="T."
V:4 bass nm="Bass" snm="B."
V:1
 c4 | G4 (F2 G2) | A4 G4 | (c2 e2) (d2 c2) | (c4 =B4) | z4 G4 | (c3 d e2) (dc) | (B2 A2) (G2 F2) | %8
w: But|oh, the _|soul that|ne- * ver _|dies! _|At|once _ _ it _|leaves _ the _|
w: Stoop|down, my _|thoughts, that|us’d _ to _|rise, _|Con-|verse _ _ a- *|while _ with _|
w: His|quiv- ’ring _|lip hangs|fee- * bly _|down, _|His|pul- * * ses _|faint _ and _|
 E8 | z4 G4 | B4 A4 | (G3 A) (B2 G2) | (c3 d e2) (dc) | d8 | z4 d4 | (e2 c2) (=B2 c2) | %16
w: clay!|Ye|thoughts, pur-|sue _ it _|where _ _ it _|flies,|And|track _ its _|
w: death:|Think|how a|gasp- * ing _|mor- * * tal _|lies,|And|pants _ a- *|
w: few,|Then,|speech- less,|with _ a _|dole- * * ful _|groan,|He|bids _ the _|
 (f2 e2) d4 | c8 |] %18
w: wond- * rous|way.|
w: way _ his|breath.|
w: world _ a-|dieu.|
V:2
 G4 | (E2 C2) (D2 E2) | F4 E4 | (E2 G2) (F2 E2) | (E4 D4) | z4 E4 | (E3 F G2) (FA) | %7
w: But|oh, _ the _|soul that|ne- * ver _|dies! _|At|once _ _ it _|
w: Stoop|down, _ my _|thoughts, that|us’d _ to _|rise, _|Con-|verse _ _ a- *|
w: His|quiv- * ’ring _|lip hangs|fee- * bly _|down, _|His|pul- * * ses _|
 (G2 F2) (E2 D2) | E8 | z4 E4 | D4 D4 | (B,4 E2) E2 | (E3 F G2) G2 | G8 | z4 G4 | G4 (G2 E2) | %16
w: leaves _ the _|clay!|Ye|thoughts, pur-|sue _ it|where _ _ it|flies,|And|track its _|
w: while _ with _|death:|Think|how a|gasp- * ing|mor- * * tal|lies,|And|pants a- *|
w: faint _ and _|few,|Then,|speech- less,|with _ a|dole- * * ful|groan,|He|bids the _|
 A4 G4 | G8 |] %18
w: wond- rous|way.|
w: way his|breath.|
w: world a-|dieu.|
V:3
 G4 | c4 (=B2 c2) | d4 c4 | (G2 B2) A4 | G8 | z4 B4 | (c4 B2) (fe) | (e2 B2) (B3 A) | G8 | z4 G4 | %10
w: But|oh, the _|soul that|ne- * ver|dies!|At|once _ it _|leaves _ the _|clay!|Ye|
w: Stoop|down, my _|thoughts, that|us’d _ to|rise,|Con-|verse _ a- *|while _ with _|death:|Think|
w: His|quiv- ’ring _|lip hangs|fee- * bly|down,|His|pul- * ses _|faint _ and _|few,|Then,|
 F4 F4 | (E3 F G2) G2 | (G4 c2) c2 | =B8 | z4 =B4 | (c2 e2) (d2 c2) | c4 =B4 | c8 |] %18
w: thoughts, pur-|sue _ _ it|where _ it|flies,|And|track _ its _|wond- rous|way.|
w: how a|gasp- * * ing|mor- * tal|lies,|And|pants _ a- *|way his|breath.|
w: speech- less,|with _ _ a|dole- * ful|groan,|He|bids _ the _|world a-|dieu.|
V:4
 C,4 |"^6" E,4"^Y" (D,2 C,2) |"^7" =B,,4 C,4 |"^6""^53" E,4"^86""^75" F,4 |"^64""^5E" G,8 | %5
w: But|oh, the _|soul that|ne- ver|dies!|
w: Stoop|down, my _|thoughts, that|us’d to|rise,|
w: His|quiv- ’ring _|lip hangs|fee- bly|down,|
 z4 E,4 | (A,4"^6" G,2)"^6" A,2 |"^64""^75" B,4"^64""^53""^7" B,,4 | E,8 | %9
w: At|once _ it|leaves the|clay!|
w: Con-|verse _ a-|while with|death:|
w: His|pul- * ses|faint and|few,|
"^Up to the courts where angels dwell,It mounts triumphant there:Or devils plunge it down to hell,In infinite despair.And must my body faint and die?And must my soul remove?O for some guardian angel nigh,To bear it safe above!" z4 C,4 | %10
w: Ye|
w: Think|
w: Then,|
"^6" D,4"^7" B,,4 | E,6 E,2 | %12
w: thoughts, pur-|sue it|
w: how a|gasp- ing|
w: speech- less,|with a|
"^Jesus, to thy dear faithful handMy naked soul I trust;And my flesh waits for thy command,To drop into my dust.""^Notes: The original order of staves is Tenor - Alto - Air - Bass, withthe Alto part printed in the treble clef an octave above sounding pitch.Only the first verse of text is given in the source: subsequent verseshave here been added editorially." C,6 C,2 | %13
w: where it|
w: mor- tal|
w: dole- ful|
"^§" G,8 | z4"^§" G,4 | C4"^§" (G,2 A,2) |"^8""^7" F,4"^§" G,4 | C,8 |] %18
w: flies,|And|track its _|wond- rous|way.|
w: lies,|And|pants a- *|way his|breath.|
w: groan,|He|bids the _|world a-|dieu.|

